X:1
T:Title
%%score { 1 | ( 2 3 ) }
L:1/8
M:9/8
K:Eb
V:1 treble nm="Grand Piano"
V:2 bass 
V:3 bass 
V:1
 z3 z3[Q:1/4=122] [B,EG]2 [A,DF] | [G,E]3 [EGB]3 [EAc]2 [EAc] | [EGB]3 [B,EG]3 [DF]2 [EG] | %3
 [FA]3 [Ad]3 [Ad]2 [DAc] |[M:3/4] [EGB]6 |[M:3/8] [B,FA]2 [B,EG] | %6
[M:9/8] [B,DF]3 [B,FA]3 [DAc]2 [DAc] | [EGB]3 [B,EG]3 [G,E]2 [B,EG] | %8
 [B,FA]3 [B,FA]3 [B,EG]2 [A,DF] |[M:3/4] [G,E]6 |[M:3/8] [GB][Ac][Ad] | %11
[M:9/8] [Ge]3 [Be]3 [ce][Bd][Ac] | [GB]3 [EG]3 [DF]2 [EG] | [FA]3 [Ac]3 [Ac][GB][B,FA] | %14
[M:3/4] [B,EG]6 |[M:3/8] [GB][Ac][Ad] |[M:9/8] [Ge]3 [Be]3 [ce][Bd][Ac] | [GB]3 G3 G2 A | %18
 B2 [Ge] [EG]3 [DF]3 |[M:3/4] E6 |] %20
V:2
 z3 z3 E,2 B,, | E,3 E,3 A,2 A, | E,3 E,3 [B,,B,]2 [B,,B,] | [B,,B,]3 [B,,B,]3 [B,,B,]2 B,, | %4
[M:3/4] E,6 |[M:3/8] D,2 E, |[M:9/8] B,,3 B,,3 B,,2 B,, | E,3 E,3 E,2 E, | B,,3 B,,3 B,,2 B,, | %9
[M:3/4] E,6 |[M:3/8] [E,E]2 [E,B,] |[M:9/8] [E,B,]3 [G,E]3 [A,E]2 [A,E] | %12
 [E,E]3 [E,B,]3 [B,,B,]2 [B,,B,] | z3 z3 .B,3 |[M:3/4] E,6 |[M:3/8] [E,E]2 [E,B,] | %16
[M:9/8] [E,B,]3 [G,E]3 [A,E]2 [A,E] | [E,E]3 [E,B,E]3 [E,B,E]2 [F,B,D] | %18
 [G,B,E]2 [E,B,] [B,,B,]3 [B,,A,]3 |[M:3/4] [E,G,]6 |] %20
V:3
 x9 | x9 | x9 | x9 |[M:3/4] x6 |[M:3/8] x3 |[M:9/8] x9 | x9 | x9 |[M:3/4] x6 |[M:3/8] x3 | %11
[M:9/8] x9 | x9 | [B,,B,]3 [B,,B,]3 B,,C,D, |[M:3/4] x6 |[M:3/8] x3 |[M:9/8] x9 | x9 | x9 | %19
[M:3/4] x6 |] %20

